X: 157
T: A Dhomhnuill! A Dhomhnuill!
R: reel
M: 4/4
K: Gmajor
D|G2GA Bdde|dBAB AGED|G2GA Bdde|dBAB G2G:|
e|gfed e2ef|gfed eBBe|gfed e2eg|dBAB G/G/G Ge|
gfed e2ef|gfed eBBe|gfed efga|bagf g2||

